actions/24/format-text-direction-rtl.svg

<?xml version="1.0" encoding="UTF-8" standalone="no"?>
<svg
   width="24"
   height="24"
   version="1.1"
   id="svg9"
   sodipodi:docname="format-text-direction-rtl.svg"
   inkscape:version="1.1.2 (0a00cf5339, 2022-02-04)"
   xmlns:inkscape="http://www.inkscape.org/namespaces/inkscape"
   xmlns:sodipodi="http://sodipodi.sourceforge.net/DTD/sodipodi-0.dtd"
   xmlns="http://www.w3.org/2000/svg"
   xmlns:svg="http://www.w3.org/2000/svg">
  <sodipodi:namedview
     id="namedview11"
     pagecolor="#000000"
     bordercolor="#666666"
     borderopacity="1.0"
     inkscape:pageshadow="2"
     inkscape:pageopacity="0"
     inkscape:pagecheckerboard="true"
     showgrid="false"
     inkscape:zoom="28.416667"
     inkscape:cx="11.982405"
     inkscape:cy="11.964809"
     inkscape:window-width="1596"
     inkscape:window-height="967"
     inkscape:window-x="0"
     inkscape:window-y="29"
     inkscape:window-maximized="1"
     inkscape:current-layer="g7" />
  <defs
     id="defs3">
    <style
       id="current-color-scheme"
       type="text/css">
   .ColorScheme-Text { color:#eeeeec; } .ColorScheme-Highlight { color:#367bf0; } .ColorScheme-NeutralText { color:#ffcc44; } .ColorScheme-PositiveText { color:#3db47e; } .ColorScheme-NegativeText { color:#dd4747; }
  </style>
  </defs>
  <g
     transform="translate(4,4)"
     id="g7">
    <path
       style="fill:currentColor"
       class="ColorScheme-Text"
       d="M 3.3531025,9.4851731 4,9.87285 V 11 h 11 v 2 H 4 v 1.166307 0 L 3.3260659,14.494549 0.66860944,12.501457 0.65618035,11.507865 v 0 z M 6,0 v 2 h 6 c 0,0 1,0 1,1 V 4 H 8 C 5,4 5,7 5,7 c 0,0 0,3 3,3 h 7 V 3 C 15,0 12,0 12,0 Z m 2,6 h 5 V 8 H 8 C 7,8 7,7 7,7 7,7 7,6 8,6 Z"
       id="path5"
       sodipodi:nodetypes="cccccccccccccccccscscscsccsccsc" />
  </g>
</svg>

<svg xmlns="http://www.w3.org/2000/svg" width="24" height="24" version="1.1">
 <defs>
  <style id="current-color-scheme" type="text/css">
   .ColorScheme-Text { color:#eeeeec; } .ColorScheme-Highlight { color:#367bf0; } .ColorScheme-NeutralText { color:#ffcc44; } .ColorScheme-PositiveText { color:#3db47e; } .ColorScheme-NegativeText { color:#dd4747; }
  </style>
 </defs>
 <g transform="translate(4,4)">
  <path style="fill:currentColor" class="ColorScheme-Text" d="M 4,9 V 11 H 15 V 13 H 4 V 15 L 0,12 Z M 6,0 V 2 H 12 C 12,2 13,2 13,3 V 4 H 8 C 5,4 5,7 5,7 5,7 5,10 8,10 H 15 V 3 C 15,0 12,0 12,0 Z M 8,6 H 13 V 8 H 8 C 7,8 7,7 7,7 7,7 7,6 8,6 Z"/>
 </g>
</svg>
